X:1
T:Silchester, SM
T:Silchester, SM
T:Henri Abraham César Malan (1787-1864)
T:Public Domain Courtesy of the Cyber Hymnal™
C:Henri Abraham César Malan (1787-1864)
Z:Public Domain
Z:Courtesy of the Cyber Hymnal™
%%score ( 1 2 ) ( 3 4 )
L:1/8
Q:1/4=110
M:4/4
K:Eb
V:1 treble 
V:2 treble 
V:3 bass 
V:4 bass 
V:1
 [GB]2 | [GB]2 (GA) [EB]2 [Ec]2 | [EB]6 [EB]2 | (ce) ([Ed][Fc]) B2 A2 | [EG]6 [Ge]2 | %5
 [Ge]2 ([Bd][Ac]) [GB]3 [FA] | ([EG][FA]) ([GB][Ac]) [GB]3 [GB] | [Ac]2 [Ac]2 [Fd]2 [Fd]2 | %8
 [Ge]6 |] %9
V:2
 x2 | x2 E2 x4 | x8 | E2 x (G E) (FD) x | x8 | x8 | x8 | x8 | x6 |] %9
V:3
 [E,E]2 | [E,B,]2 B,2 [G,B,]2 A,2 | [E,G,]6 [E,G,]2 | (A,C) (B,A,) [B,,G,]2 [B,,B,]2 | %4
 [E,B,]6 [E,B,]2 | [E,B,]2 (B,C/D/) [E,E]3 [E,B,] | [E,B,]2 [E,B,]2 [E,B,]3 [E,E] | %7
 [A,C]2 [F,C]2 B,2 [B,,B,]2 | [E,B,]6 |] %9
V:4
 x2 | x2 (E,F,) x A,2 x | x8 | A,,2 A,,2 x4 | x8 | x2 E,2 x4 | x8 | x4 B,2 x2 | x6 |] %9

